X: 135
T: The Kid on the Mountain
R:slip jig
M:9/8
K:Em
"Em"~E3 "D"FEF "G"G2F|"Em"~E3 BcA "G"BGD|"Em"EDE "D"FEF "G"G2A|BAG "D"FAG FED:|
|: "G"BGB "D"AFD "G"G2D|GAB dge "D"dBA|"G"BGB "D"AFA "G"G2A|BAG "D"FAG FED:|
|: "Em"~g3 eBB e2f|~g3 efg "D"afd|"Em"gfg eBB e2g|"G"bag "D"fag fed:|
|: "Em"eBB e2f g2f|eBB efg "D"afd|"Em"eBB e2f g2a|"G"bag "D"fag fed:|
|: "Em"edB "D"dBA "G"G2D|GAB dge dBd|"Em"edB "D"dBA "G"G2A|BAG "D"FAG FED:|


